!! 00000] TT[WS
!!!OTL: Zicong laile gongchandang
!!!ARE: Asia, China, Shanxi Linxian
!! Ethnic Group: Han
!! WI, 277
!!!SCT: J0330
!!!YEM: Copyright 1995, estate of Helmut Schaffrath.
**kern
*ICvox
*Ivox
*M4/4
*k[f#c#]
*D:
{4ee
8aa
8b
8dd
4a
8g
=1
8.a
16b
8a
8d
2e}
=2
{8e
8ccn
4ccn
8dd
4a
8g
=3
8.a
16b
8a
8d
2e}
=4
{4a
8a
8a
4dd
8ee
8aa
=5
8ee
8dd
8cc#
8b
16a
16b
[4.a
=6
2.a]
8b
8a}
=7
{4g
2e
4a
=8
8e
8d
8c#
8B
2A}
=9
{8a
4a
8e
4a
8dd
8g
=10
8a
4e
8d
8e
4e
8a
=11
8e
8d
8c#
8B
2A}
==
!!!AGN: Xiaodiao. Xinminge, Xuanchuan
!! Neue Text. Politische Liede
!!!ONB: ESAC (Essen Associative Code) Database: CHINA
!!!AMT: simple quadruple
!!!AIN: vox
!!!EED: Helmut Schaffrath
!!!EEV: 1.0
*-
!!!ONB: Tied note syntax fixed by Craig Sapp, 2004/05/03/
